X:1101301
T:[ID 11-13a]
T:Bezeichnung standardisiert: Sonata Andante
T:Sonata Andante
C:Urheber unbekannt
C:Datum in der hier transkribierten schriftlichen Quelle: vermutlich um 1800
O:Deutschland; Westfalen; Dinker
S:"Tanzsammlung Dahlhoff" Staatsbibliothek zu Berlin, Musiksammlung, Mus. ms. 40182, Buch 11, 013/S, PDF Nr: 1355
S:Scan online: http://resolver.staatsbibliothek-berlin.de/SBB0000969000001355
F:http://simonwascher.info/TradArchiv/Dahlhoff/ file-version 2017-11-21
Z:Erfassung in Capella Richmud Rollenbeck, Konversion nach MusicXML Joergen Lang, Konversion nach abc und abc Lektorat Simon Wascher
L:1/16
M:2/4
K:D
A6d2 | (d4.c2)ef | g2f2 {f/}e2dc | d2A2z4 | A6d2 | (d4.c2)eg | f2g2 a2bd | {d}c4z2a2 | a2^g4f2 | f2e4dc | Bcde f2A2 | {A}^G4z2e2 | e2Ac.d2.d2 | {d/}c2>d2.e2.e2 | e2(Bc) d2d2 | {d}c4f4 | e2fdc2B2 | {B}A8 ::
e6a2 | (a4^g2)f2 | e2c2 {e/}d2cB | c2A2e2f2 | {a/}g2fg a2g2 | {a}g2f2 z2a2 | B2B4c2 | d2ef g2e2 | {g/}f2ed b2d2 | {d}c4z2a2 | a2(ef) g2g2 | f2>g2 a2a2 | a2ef g2g2 | {g}f4b4 | a2bg f2e2 | {e}d8 H:| "^1)"y22"^Men"a8b2a2 |

